!!!COM: Balsamino, Simone
!!!CDT:
!!!PTL: Novellette a sei voci
!!!PPP: Venice
!!!PPR: Amadino
!!!PDT: 1594
!!!PUB-format:
!!!RISM: B 785
!!!OTL: Dura conclusion, che tutte affosca
!!!AGN: Madrigal
!!!SCT: Tam2031075a
!!!SCA: Tam2031075a
!!!original-voices: 6
!!!extant-voices: 6
!!!complete: Y
!!!final: (C)F
**kern	**text	**kern	**text	**kern	**text	**kern	**text	**kern	**text	**kern	**text
*part6	*part6	*part5	*part5	*part4	*part4	*part3	*part3	*part2	*part2	*part1	*part1
*staff6	*staff6	*staff5	*staff5	*staff4	*staff4	*staff3	*staff3	*staff2	*staff2	*staff1	*staff1
*I"Basso	*	*I"Quinto	*	*I"Tenore	*	*I"Alto	*	*I"Sesto	*	*I"Canto	*
*I'B	*	*I'V	*	*I'T	*	*I'A	*	*I'VI	*	*I'C	*
*oclefF4	*	*oclefC4	*	*oclefC4	*	*oclefC3	*	*oclefC1	*	*oclefC1	*
*clefF4	*	*clefGv2	*	*clefGv2	*	*clefG2	*	*clefG2	*	*clefG2	*
*k[b-]	*	*k[b-]	*	*k[b-]	*	*k[b-]	*	*k[b-]	*	*k[b-]	*
*omet(C)	*	*omet(C)	*	*omet(C)	*	*omet(C)	*	*omet(C)	*	*omet(C)	*
*M4/2	*	*M4/2	*	*M4/2	*	*M4/2	*	*M4/2	*	*M4/2	*
=1	=1	=1	=1	=1	=1	=1	=1	=1	=1	=1	=1
!!LO:TX:a:t=[Sesta parte]
0r	.	1r	.	1.B-y	Du-	0r	.	1r	.	1.dd	Du-
.	.	[1B-y	Du-	.	.	.	.	[1dd	Du-	.	.
.	.	.	.	4A	-ra	.	.	.	.	4cc	-ra
.	.	.	.	4G	con-	.	.	.	.	4b-y	con-
=2	=2	=2	=2	=2	=2	=2	=2	=2	=2	=2	=2
1.D	Du-	2B-y]	.	4F	-clu-	1.f	Du-	2dd]	.	4a	-clu-
.	.	.	.	4E	-si-	.	.	.	.	4g	-si-
.	.	4A	-ra	1F	-on,	.	.	4cc	-ra	2a	-on,
.	.	4G	con-	.	.	.	.	4b-y	con-	.	.
.	.	4F	-clu-	.	.	.	.	4a	-clu-	2r	.
.	.	4E	-si-	.	.	.	.	4g	-si-	.	.
4C	-ra	[2F	-on,	[2A	Du-	4e	-ra	2a	-on,	[2cc	Du-
4BB-y	con-	.	.	.	.	4d	con-	.	.	.	.
=3	=3	=3	=3	=3	=3	=3	=3	=3	=3	=3	=3
4AA	-clu-	2F]	.	2A]	.	4c	-clu-	2f	Du-	2cc]	.
4GG	-si-	.	.	.	.	4B-y	-si-	.	.	.	.
2AA	-on,	2A	Du-	4A	-ra	2A	-on,	4f	-ra	2cc	-ra,
.	.	.	.	4G	con-	.	.	4e	con-	.	.
[1BB-y	Du-	4A	-ra	4F	-clu-	1f	Du-	4d	-clu-	[1b-y	Du-
.	.	4G	con-	4E	-si-	.	.	4c	-si-	.	.
.	.	4F	-clu-	2D	-on,	.	.	2d	-on,	.	.
.	.	4E	-si-	.	.	.	.	.	.	.	.
=4	=4	=4	=4	=4	=4	=4	=4	=4	=4	=4	=4
1BB-y]	.	0D	-on,	2F	Du-	4f	-ra	1.b-y	<Du-	2b-y]	.
.	.	.	.	.	.	4e	con-	.	.	.	.
.	.	.	.	2F	-ra,	4d	-clu-	.	.	4a	-ra
.	.	.	.	.	.	4c	-si-	.	.	4g	con-
1BB-y	-ra	.	.	[1B-y	Du-	2B-y	-on,	.	.	4f	-clu-
.	.	.	.	.	.	.	.	.	.	4f	-si-
.	.	.	.	.	.	2f	Du-	4a	-ra	2d	-on,
.	.	.	.	.	.	.	.	4g	con-	.	.
=5	=5	=5	=5	=5	=5	=5	=5	=5	=5	=5	=5
1BB-y	con-	1.B-y	<Du-	2B-y]	.	2d	-ra,	4f	-clu-	1dd	Du-
.	.	.	.	.	.	.	.	4e	-si-	.	.
.	.	.	.	4A	-ra	1f	Du-	2d	-on,	.	.
.	.	.	.	4G	con-	.	.	.	.	.	.
1BB-y	-clu-	.	.	4F	-clu-	.	.	1r	.	1dd	-ra,
.	.	.	.	4D	-si-	.	.	.	.	.	.
.	.	4A	-ra	2D	-on,	4f	-ra	.	.	.	.
.	.	4G	con-	.	.	4e	con-	.	.	.	.
=6	=6	=6	=6	=6	=6	=6	=6	=6	=6	=6	=6
1BB-y	-si-	4F	-clu-	1.f	Du-	4d	-clu-	1.b-y	Du-	1.dd	Du-
.	.	4E	-si-	.	.	4c	-si-	.	.	.	.
.	.	2D	-on,>	.	.	2B-y	-on,	.	.	.	.
[1FF	-on,	1r	.	.	.	1r	.	.	.	.	.
.	.	.	.	4e	-ra	.	.	4a	-ra	4cc	-ra
.	.	.	.	4d	con-	.	.	4g	con-	4b-	con-
=7	=7	=7	=7	=7	=7	=7	=7	=7	=7	=7	=7
2FF]	.	2r	.	4c	-clu-	2r	.	4f	-clu-	4a	-clu-
.	.	.	.	4B-y	-si-	.	.	4e	-si-	4g	-si-
2FF	che	2A	che	4A	-on,	2c	che	4f	-on,>	4f	-on,
.	.	.	.	4A	che	.	.	4g	che	4cc	che
4C	tut-	4G	tut-	4c	tut-	4e	tut-	4g	tut-	4cc	tut-
4GG	-te at-	4B-y	-te at-	4B-y	-te at-	4g	-te at-	4g	-te at-	4dd	-te at-
2D	-to-	2A	-to-	2d	-to-	2f#X	-to-	2a	-to-	2dd	-to-
=8	=8	=8	=8	=8	=8	=8	=8	=8	=8	=8	=8
4D	-sca,	4D	-sca,	4d	-sca,	4f#i	-sca,	4a	-sca,	4dd	-sca,
4GG	che	4D	che	4d	che	4d	che	4g	che	4b-y	che
4D	tut-	4D	tut-	4d	tut-	4f#i	tut-	4a	tut-	4a	tut-
4D	-te at-	4A	-te at-	4d	-te at-	4f#i	-te at-	4dd	-te at-	4a	-te at-
[1GG	-to-	1G	-to-	[1d	-to-	4g	-to-	[1dd	-to-	1bnX	-to-
.	.	.	.	.	.	4g	-sca	.	.	.	.
.	.	.	.	.	.	4g	Le	.	.	.	.
.	.	.	.	.	.	4g	dol-	.	.	.	.
=9	=9	=9	=9	=9	=9	=9	=9	=9	=9	=9	=9
0GG]	.	2G	-sca	1d]	.	1..g	-cez-	1dd]	.	1bnXi	-sca
.	.	4G	Le	.	.	.	.	.	.	.	.
.	.	4G	dol-	.	.	.	.	.	.	.	.
.	.	[1G	-cez-	1d	-sca	.	.	[1bnX	-sca	2r	.
.	.	.	.	.	.	.	.	.	.	4g	Le
.	.	.	.	.	.	8f	-ze	.	.	4g	dol-
.	.	.	.	.	.	8e	pas-	.	.	.	.
=10	=10	=10	=10	=10	=10	=10	=10	=10	=10	=10	=10
1.GG	-sca	2.G]	.	1r	.	1d	-sa-	1bn]	.	1..g	-cez-
.	.	8F	-ze	.	.	.	.	.	.	.	.
.	.	8E	pas-	.	.	.	.	.	.	.	.
.	.	4D	-sa-	[2.B-y	Le	1d	-te,	1r	.	.	.
.	.	4D	-te,	.	.	.	.	.	.	.	.
4G	Le	2r	.	.	.	.	.	.	.	.	.
4G	dol-	.	.	4B-]	dol-	.	.	.	.	8f	-ze
.	.	.	.	.	.	.	.	.	.	8e	pas-
=11	=11	=11	=11	=11	=11	=11	=11	=11	=11	=11	=11
1..G	-cez-	1r	.	1..B-y	-cez-	4g	Le	2r	.	1d	-sa-
.	.	.	.	.	.	4g	dol-	.	.	.	.
.	.	.	.	.	.	[1.g	-cez-	4dd	Le	.	.
.	.	.	.	.	.	.	.	4dd	dol-	.	.
.	.	2r	.	.	.	.	.	[1dd	-cez-	1d	-te,
.	.	4d	Le	.	.	.	.	.	.	.	.
8F	-ze	4d	dol-	8A	-ze	.	.	.	.	.	.
8E	pas-	.	.	8G	pas-	.	.	.	.	.	.
=12	=12	=12	=12	=12	=12	=12	=12	=12	=12	=12	=12
[0D	-sa-	1..d	-cez-	2A	-sa-	4g]	.	2.dd]	.	2r	.
.	.	.	.	.	.	8f	-ze	.	.	.	.
.	.	.	.	.	.	8e	pas-	.	.	.	.
.	.	.	.	2A	-te,	1f#X	-sa-	.	.	4dd	Le
.	.	.	.	.	.	.	.	8cc	-ze	4dd	dol-
.	.	.	.	.	.	.	.	8b-y	pas-	.	.
.	.	.	.	4d	Le	.	.	2.a	-sa-	[1dd	-cez-
.	.	.	.	4d	dol-	.	.	.	.	.	.
.	.	.	.	[2d	-cez-	2f#X	-te,	.	.	.	.
.	.	8c	-ze	.	.	.	.	4g	.	.	.
.	.	8B-	pas-	.	.	.	.	.	.	.	.
=13	=13	=13	=13	=13	=13	=13	=13	=13	=13	=13	=13
0D]	.	1A	-sa-	4d]	.	4a	Le	2f#X	.	2.dd]	.
.	.	.	.	8c	-ze	4a	dol-	.	.	.	.
.	.	.	.	8B-y	pas-	.	.	.	.	.	.
.	.	.	.	1A	-sa-	2.d	-cez-	2.g	.	.	.
.	.	.	.	.	.	.	.	.	.	8cc	-ze
.	.	.	.	.	.	.	.	.	.	8b-y	pas-
.	.	[1D	-te.	.	.	.	.	.	.	1a	-sa-
.	.	.	.	.	.	8c	-ze	8f#XiL	.	.	.
.	.	.	.	.	.	8B-y	pas-	8eJ	.	.	.
.	.	.	.	2A	-te.	2A	-sa-	2f#X	.	.	.
=14	=14	=14	=14	=14	=14	=14	=14	=14	=14	=14	=14
2GG	-te.	2D]	.	2r	.	2BnX	-te.	2g	-te.	2g	-te.
2r	.	1D	Or,	1A	Or,	1d	Or,	1dd	Or,	1f#X	Or,
1r	.	.	.	.	.	.	.	.	.	.	.
.	.	4D	con	4A	con	4d	con	4dd	con	4f#i	con
.	.	4G	qual	4G	qual	4d	qual	4b-y	qual	4g	qual
=15	=15	=15	=15	=15	=15	=15	=15	=15	=15	=15	=15
2r	.	2F	ar-	2c	ar-	2f	ar-	2cc	ar-	2a	ar-
4r	.	4F	-te,	4c	-te,	4f	-te,	4cc	-te,	4a	-te,
4GG	Or,	4D	Or,	4B-y	Or,	4g	Or,	4dd	Or,	4b-y	<Or,
4GG	con	4G	con	4G	con	4g	con	4dd	con	4b-y	con
4C	qual	4C	qual	4G	qual	4e	qual	4cc	qual	4g	qual
[2BB-y	ar-	[2F	ar-	[2d	ar-	[2f	ar-	[2dd	ar-	[2b-y	ar-
=16	=16	=16	=16	=16	=16	=16	=16	=16	=16	=16	=16
2BB-y]	.	2F]	.	2d]	.	2f]	.	2dd]	.	2b-y]	.
2BB-y	-te,	2.F	-te,	2d	-te,	2f	-te,	2dd	-te,	2b-y	-te,>
1GG	Cru-	.	.	1r	.	1B-y	Cru-	2d	Cru-	1r	.
.	.	4D	Cru-	.	.	.	.	.	.	.	.
.	.	2G	-del,	.	.	.	.	[2e	-del,	.	.
=17	=17	=17	=17	=17	=17	=17	=17	=17	=17	=17	=17
2.AA	-del,	2E	Cru-	0r	.	2.c	-del,	4e]	.	0r	.
.	.	.	.	.	.	.	.	4e	Cru-	.	.
.	.	2A	-del,	.	.	.	.	2.f	-del,	.	.
4AA	Cru-	.	.	.	.	4c	Cru-	.	.	.	.
[2.BB-y	-del,	2F	Cru-	.	.	2.d	-del,	.	.	.	.
.	.	.	.	.	.	.	.	4f	<Cru-	.	.
.	.	2B-y	-del,	.	.	.	.	[2g	-del,>	.	.
4BB-]	Cru-	.	.	.	.	4d	Cru-	.	.	.	.
=18	=18	=18	=18	=18	=18	=18	=18	=18	=18	=18	=18
2C	-del,	2G	Cru-	0r	.	1e	-del,	2g]	.	0r	.
2C	tu	4c	-del,	.	.	.	.	2a	Cru-	.	.
.	.	4c	tu	.	.	.	.	.	.	.	.
[2.D	mi	2A	mi	.	.	1f	Cru-	2.a	-del,	.	.
.	.	2A	tor-	.	.	.	.	.	.	.	.
4D]	tor-	.	.	.	.	.	.	4b-y	tu	.	.
=19	=19	=19	=19	=19	=19	=19	=19	=19	=19	=19	=19
2E	-men-	2G	-men-	0r	.	2g	-del,	1cc	mi	0r	.
1F	.	1A	.	.	.	2f	tu	.	.	.	.
.	.	.	.	.	.	[1c	mi	1cc	tor-	.	.
4E	.	4G	.	.	.	.	.	.	.	.	.
4D	.	4F	.	.	.	.	.	.	.	.	.
=20	=20	=20	=20	=20	=20	=20	=20	=20	=20	=20	=20
2E	.	2G	.	0r	.	2c]	.	0cc	-men-	0r	.
2.F	.	2.A	.	.	.	2c	tor-	.	.	.	.
.	.	.	.	.	.	1c	-men-	.	.	.	.
8EL	.	8GL	.	.	.	.	.	.	.	.	.
8DJ	.	8FJ	.	.	.	.	.	.	.	.	.
2E	.	2G	.	.	.	.	.	.	.	.	.
=21	=21	=21	=21	=21	=21	=21	=21	=21	=21	=21	=21
1F	-ti?	1F	-ti?	4A	Po-	1c	-ti?	1a	-ti?	4cc	Po-
.	.	.	.	4A	-co	.	.	.	.	4cc	-co
.	.	.	.	4A	dun-	.	.	.	.	4cc	dun-
.	.	.	.	8G	-que	.	.	.	.	8b-y	-que
.	.	.	.	8F	ti	.	.	.	.	8a	ti
4G	Po-	1r	.	2E	pa-	1r	.	2r	.	4g	pa-
4G	-co	.	.	.	.	.	.	.	.	4g	-re,
4G	dun-	.	.	2D	-re,	.	.	[4dd	Po-	4b-y	Po-
8F	-que	.	.	.	.	.	.	4dd]	-co	4b-y	-co
8E	ti	.	.	.	.	.	.	.	.	.	.
=22	=22	=22	=22	=22	=22	=22	=22	=22	=22	=22	=22
4D	pa-	4d	Po-	2.F	Po-	0r	.	4dd	dun-	4b-y	dun-
4D	-re,	4d	-co	.	.	.	.	8cc	-que	8a	-que
.	.	.	.	.	.	.	.	8b-y	ti	8g	ti
4D	Po-	4d	dun-	.	.	.	.	4a	pa-	4f	pa-
4D	-co	8c	-que	4F	-co	.	.	4a	-re,	4f	-re,
.	.	8B-y	mi	.	.	.	.	.	.	.	.
4D	dun-	4A	pa-	4F	dun-	.	.	4a	<Po-	4f	<Po-
8C	-que	4A	-re,	8E	-que	.	.	4a	-co	4f	-co
8BB-y	ti	.	.	8D	ti	.	.	.	.	.	.
[2AA	pa-	4A	<Po-	2C	pa-	.	.	4a	dun-	4f	dun-
.	.	4A	-co	.	.	.	.	8g	-que	8e	-que
.	.	.	.	.	.	.	.	8f	ti	8d	ti
=23	=23	=23	=23	=23	=23	=23	=23	=23	=23	=23	=23
2AA]	.	4A	dun-	2C	-re	2r	.	4e	pa-	2c	pa-
.	.	8G	-que	.	.	.	.	4e	-re>	.	.
.	.	8F	mi	.	.	.	.	.	.	.	.
2AA	-re	2E	pa-	4.c	Ch'in-	4.e	Ch'in-	4.a	Ch'in-	2c	-re>
.	.	.	.	8c	-fe-	8e	-fe-	8a	-fe-	.	.
4.D	Ch'in-	2F	-re>	4.A	-li-	4.d	-li-	4.f	-li-	1r	.
8D	-fe-	.	.	8A	-ce io	8d	-ce io	8f	-ce io	.	.
4.C	-li-	4.G	Ch'in-	4c	si-	4e	si-	4e	si-	.	.
.	.	.	.	4c	-a,	4c	-a,	4e	-a,	.	.
8C	-ce io	8G	-fe-	.	.	.	.	.	.	.	.
=24	=24	=24	=24	=24	=24	=24	=24	=24	=24	=24	=24
2AA	si-	4C	-li-	4.c	Ch'in-	2r	.	4.a	<Ch'in-	4.cc	Ch'in-
.	.	4C	-ce io	.	.	.	.	.	.	.	.
.	.	.	.	8c	-fe-	.	.	8a	-fe-	8cc	-fe-
1GG	-a,	2D	si-	4.G	-li-	4.B-y	Ch'in-	4.d	-li-	4.b-y	-li-
.	.	.	.	8G	-ce io	8B-y	-fe-	8d	-ce io	8b-y	-ce io
.	.	2D	-a,	2G	si-	4B-y	-li-	2d	si-	4.g	si-
.	.	.	.	.	.	4B-y	-ce io	.	.	.	.
.	.	.	.	.	.	.	.	.	.	8g	-a,
2GG	Ch'a	2G	Ch'a	4G	-a,	2B-y	si-	4d	-a,>	4.g	Ch'in-
.	.	.	.	4B-y	Ch'a	.	.	4d	Ch'a	.	.
.	.	.	.	.	.	.	.	.	.	8g	-fe-
=25	=25	=25	=25	=25	=25	=25	=25	=25	=25	=25	=25
4FF	cre-	4C	cre-	4A	cre-	2c	-a,	4f	cre-	4.a	-li-
4FF	-scer	4C	-scer	4A	-scer	.	.	4f	-scer	.	.
.	.	.	.	.	.	.	.	.	.	8a	-ce io
4GG	vie-	4G	vie-	4B-y	vie-	2r	.	4d	vie-	2g	si-
8GG	-ni,	8G	-ni,	8B-y	-ni,	.	.	8d	-ni,	.	.
8GG	Ch'a	8G	<Ch'a	8B-y	Ch'a	.	.	8d	<Ch'a	.	.
4AA	cre-	4C	cre-	4c	cre-	2r	.	4a	cre-	4e	-a,
4AA	-scer	4C	-scer	4c	-scer	.	.	4a	-scer	4e	Ch'a
4BB-y	vie-	4F	vie-	2d	vie-	4.B-y	<Ch'in-	4f	vie-	4d	cre-
[8BB-y	-ni,	[8F	-ni,	.	.	.	.	8f	-ni,	4d	-scer
8BB-]	<Ch'a	8F]	Ch'a	.	.	8B-y	-fe-	8f	Ch'a	.	.
=26	=26	=26	=26	=26	=26	=26	=26	=26	=26	=26	=26
4C	cre-	4E	cre-	4c	-ni,	4.G	-li-	4cc	cre-	4e	vie-
4C	-scer	4E	-scer	4c	<Ch'a	.	.	4cc	-scer	8e	-ni,
.	.	.	.	.	.	8G	-ce io	.	.	8e	<Ch'a
4D	vie-	4A	vie-	4f	cre-	4F	si-	2a	vie-	4f	cre-
8D	-ni,	8A	-ni,	4d	-scer	4F	-a,>	.	.	4f	-scer
8D	Ch'a	8A	Ch'a	.	.	.	.	.	.	.	.
4E	cre-	4G	cre-	2c	vie-	2r	.	4cc	-ni,>	4g	vie-
4E	-scer	4G	-scer	.	.	.	.	4cc	Ch'a	8g	-ni,
.	.	.	.	.	.	.	.	.	.	8g	Ch'a
4F	vie-	4c	vie-	4c	-ni,	2f	Ch'a	4cc	cre-	4a	cre-
8F	-ni,>	8c	-ni,	4A	Ch'a	.	.	4cc	-scer	4a	-scer
8F	Ch'a	8c	Ch'a	.	.	.	.	.	.	.	.
=27	=27	=27	=27	=27	=27	=27	=27	=27	=27	=27	=27
4G	cre-	4B-y	cre-	4G	cre-	4d	cre-	2g	vie-	4g	vie-
4G	-scer	4B-y	-scer	4d	-scer	4d	-scer	.	.	8g	-ni,>
.	.	.	.	.	.	.	.	.	.	8g	Ch'a
2A	vie-	1A	vie-	4c	vie-	1a	vie-	2e	-ni	4a	cre-
.	.	.	.	4c	-ni>	.	.	.	.	4a	-scer
1D	-ni	.	.	4F	la	.	.	4d	la	2b-y	vie-
.	.	.	.	4F	mi-	.	.	4d	mi-	.	.
.	.	2A	-ni>	4A	-se-	2a	-ni	4f	-se-	2b-y	-ni
.	.	.	.	4F	-ria	.	.	4d	-ria	.	.
=28	=28	=28	=28	=28	=28	=28	=28	=28	=28	=28	=28
4D	la	1r	.	0F	mi-	2.A	la	2d	mi-	1r	.
4D	mi-	.	.	.	.	.	.	.	.	.	.
4F	-se-	.	.	.	.	.	.	4c	-a,	.	.
4D	-ria	.	.	.	.	4A	mi-	2f	la	.	.
[1D	mi-	2r	.	.	.	4B-y	-se-	.	.	4d	la
.	.	.	.	.	.	4A	-ria	4f	mi-	4d	mi-
.	.	4A	la	.	.	2A	mi-	4a	-se-	4f	-se-
.	.	4A	mi-	.	.	.	.	4f	-ria	4d	-ria
=29	=29	=29	=29	=29	=29	=29	=29	=29	=29	=29	=29
2D]	.	4B-y	-se-	1F	-a,	2d	-a,	2f	mi-	2d	mi-
.	.	4A	-ria	.	.	.	.	.	.	.	.
2D	-a,	4A	mi-	.	.	4A	la	2f	-a,	2d	-a,
.	.	4E	-a,	.	.	4A	mi-	.	.	.	.
4AA	la	2.E	la	1r	.	4c	-se-	2.a	la	4c	la
4AA	mi-	.	.	.	.	4A	-ria	.	.	4c	mi-
4C	-se-	.	.	.	.	2A	mi-	.	.	4e	-se-
4AA	-ria	4E	mi-	.	.	.	.	4a	mi-	4c	-ria
=30	=30	=30	=30	=30	=30	=30	=30	=30	=30	=30	=30
1AA	mi-	4F	-se-	4A	la	4A	-a,	4cc	-se-	1c	mi-
.	.	4E	-ria	4A	mi-	2e	la	4a	-ria	.	.
.	.	2E	mi-	4c	-se-	.	.	2a	mi-	.	.
.	.	.	.	4A	-ria	4e	mi-	.	.	.	.
2D	-a,	2D	-a,	2A	mi-	4f	-se-	2a	-a,	2d	-a,
.	.	.	.	.	.	4d	-ria	.	.	.	.
2D	Or,	2F#X	Or,	4A	-a,	4d	mi-	2a	Or,	2dd	Or,
.	.	.	.	4A	Or,	8d	-a,	.	.	.	.
.	.	.	.	.	.	8d	Or,	.	.	.	.
=31	=31	=31	=31	=31	=31	=31	=31	=31	=31	=31	=31
4D	con	4F#i	con	4d	con	4d	con	4a	con	4dd	con
4G	qual	4G	qual	4B-y	qual	4d	qual	4g	qual	4b-y	qual
1F	ar-	1c	ar-	1A	ar-	1f	ar-	1a	ar-	1cc	ar-
2C	-te,	2c	-te,	2E	-te,	2e	-te,	2g	-te,	2cc	-te,
=32	=32	=32	=32	=32	=32	=32	=32	=32	=32	=32	=32
1G	Cru-	1B-y	Cru-	0r	.	2d	Cru-	0r	.	1.dd	Cru-
.	.	.	.	.	.	2g	-del,	.	.	.	.
2F	-del,	2A	-del,	.	.	1c	Cru-	.	.	.	.
2C	Cru-	2G	tu	.	.	.	.	.	.	[2cc	-del,
=33	=33	=33	=33	=33	=33	=33	=33	=33	=33	=33	=33
2.D	-del,	4G	mi	0r	.	2.f	-del,	2dd	Cru-	4cc]	.
.	.	4F	tor-	.	.	.	.	.	.	4b-y	tu
.	.	2A	-men-	.	.	.	.	1cc	-del,	2a	mi
4AA	tu	.	.	.	.	4e	tu	.	.	.	.
1BB-y	mi	1D	-ti?	.	.	[1d	mi	.	.	[1f	tor-
.	.	.	.	.	.	.	.	2b-y	tu	.	.
=34	=34	=34	=34	=34	=34	=34	=34	=34	=34	=34	=34
1BB-y	tor-	0r	.	0r	.	1d]	.	1.b-y	mi	1f]	.
[1C	-men-	.	.	.	.	[1c	tor-	.	.	2e	-men-
.	.	.	.	.	.	.	.	[2a	tor-	[2f	.
=35	=35	=35	=35	=35	=35	=35	=35	=35	=35	=35	=35
0C]	.	0r	.	0r	.	1c]	.	2a]	.	2f]	.
.	.	.	.	.	.	.	.	4g	-men-	4e	.
.	.	.	.	.	.	.	.	4f	.	4d	.
.	.	.	.	.	.	[1c	-men-	2g	.	2e	.
.	.	.	.	.	.	.	.	[2a	.	[2f	.
=36	=36	=36	=36	=36	=36	=36	=36	=36	=36	=36	=36
1C	-ti?	0r	.	1r	.	1c]	.	4a]	.	4f]	.
.	.	.	.	.	.	.	.	8gL	.	8eL	.
.	.	.	.	.	.	.	.	8fJ	.	8dJ	.
.	.	.	.	.	.	.	.	2g	.	2e	.
4F	Po-	.	.	4A	Po-	1c	-ti?	2a	-ti?	1f	-ti?
4F	-co	.	.	4A	-co	.	.	.	.	.	.
4F	dun-	.	.	4A	dun-	.	.	4cc	Po-	.	.
8E	-que	.	.	8G	-que	.	.	4cc	-co	.	.
8D	ti	.	.	8F	ti	.	.	.	.	.	.
=37	=37	=37	=37	=37	=37	=37	=37	=37	=37	=37	=37
4C	pa-	4c	Po-	2G	pa-	2.e	Po-	4cc	dun-	1r	.
4C	-re,	4c	-co	.	.	.	.	8b-y	-que	.	.
.	.	.	.	.	.	.	.	8a	ti	.	.
4C	Po-	4c	dun-	2G	-re,	.	.	4g	pa-	.	.
4C	-co	8B-y	-que	.	.	4e	-co	4g	-re,	.	.
.	.	8A	ti	.	.	.	.	.	.	.	.
4C	dun-	4G	pa-	1r	.	4e	dun-	4g	<Po-	4cc	Po-
8BB-y	-que	4G	-re,	.	.	8d	-que	4g	-co	4cc	-co
8AA	ti	.	.	.	.	8c	ti	.	.	.	.
[2GG	pa-	4G	<Po-	.	.	[2BnX	pa-	4g	dun-	4cc	dun-
.	.	4G	-co	.	.	.	.	8f	-que	8b-y	-que
.	.	.	.	.	.	.	.	8e	ti	8a	ti
=38	=38	=38	=38	=38	=38	=38	=38	=38	=38	=38	=38
2GG]	.	4G	dun-	0r	.	2Bny]	.	1d	pa-	4g	pa-
.	.	8F	-que	.	.	.	.	.	.	4g	-re,
.	.	8E	ti	.	.	.	.	.	.	.	.
2GG	-re,	4D	pa-	.	.	2BnX	-re	.	.	4g	Po-
.	.	4D	-re,	.	.	.	.	.	.	4g	-co
4G	Po-	4B-y	Po-	.	.	1r	.	2d	-re,	4g	dun-
4G	-co	4B-y	-co	.	.	.	.	.	.	8f	-que
.	.	.	.	.	.	.	.	.	.	8e	ti
4G	dun-	4B-y	dun-	.	.	.	.	4dd	Po-	4d	pa-
8F	-que	8A	-que	.	.	.	.	4dd	-co	4d	-re,
8E	ti	8G	ti	.	.	.	.	.	.	.	.
=39	=39	=39	=39	=39	=39	=39	=39	=39	=39	=39	=39
1.D	pa-	1.F#X	pa-	2A	ti	0r	.	4dd	dun-	4dd	Po-
.	.	.	.	.	.	.	.	8cc	-que	4dd	-co
.	.	.	.	.	.	.	.	8b-y	ti	.	.
.	.	.	.	1d	pa-	.	.	2a	pa-	4dd	dun-
.	.	.	.	.	.	.	.	.	.	8cc	-que
.	.	.	.	.	.	.	.	.	.	8b-y	ti
.	.	.	.	.	.	.	.	2d	-re>	2a	pa-
2GG	-re	2G	-re>	2d	-re	.	.	2r	.	2b-y	-re
=40	=40	=40	=40	=40	=40	=40	=40	=40	=40	=40	=40
4.BB-y	Ch'in-	4.F	Ch'in-	4.B-y	Ch'in-	4.f	Ch'in-	1r	.	4.dd	Ch'in-
8FF	-fe-	8F	-fe-	8c	-fe-	8f	-fe-	.	.	8cc	-fe-
4BB-y	-li-	4F	-li-	4d	-li-	4f	-li-	.	.	4b-y	-li-
4C	-ce io	4c	-ce io	4c	-ce io	4e	-ce io	.	.	4g	-ce io
2FF	si-	2A	si-	2c	si-	2f	si-	2r	.	2a	si-
2FF	-a,	2c	-a,	2F	-a,	2f	-a,	2f	Ch'a	2a	-a,
=41	=41	=41	=41	=41	=41	=41	=41	=41	=41	=41	=41
1r	.	1r	.	2F	Ch'a	1r	.	8f	cre-	2f	Ch'a
.	.	.	.	.	.	.	.	8g	-scer	.	.
.	.	.	.	.	.	.	.	4a	vie-	.	.
.	.	.	.	8C	cre-	.	.	2g	-ni,	8e	cre-
.	.	.	.	8D	-scer	.	.	.	.	8f	-scer
.	.	.	.	4E	vie-	.	.	.	.	4g	vie-
2BB-y	Ch'a	2r	.	1F	-ni,	2d	Ch'a	1r	.	1f	-ni,
8FF	cre-	2c	Ch'a	.	.	8A	cre-	.	.	.	.
8GG	-scer	.	.	.	.	8B-y	-scer	.	.	.	.
4AA	vie-	.	.	.	.	4c	vie-	.	.	.	.
=42	=42	=42	=42	=42	=42	=42	=42	=42	=42	=42	=42
2BB-y	-ni	8B-y	cre-	2r	.	2d	-ni	2r	.	2f	<Ch'a
.	.	8c	-scer	.	.	.	.	.	.	.	.
.	.	4d	vie-	.	.	.	.	.	.	.	.
1C	la	1c	-ni,	2G	Ch'a	1e	la	2g	<Ch'a	4e	cre-
.	.	.	.	.	.	.	.	.	.	4f	-scer
.	.	.	.	8E	cre-	.	.	8c	cre-	2g	vie-
.	.	.	.	8F	-scer	.	.	8d	-scer	.	.
.	.	.	.	4G	vie-	.	.	4e	vie-	.	.
[2D	mi-	2A	<Ch'a	2D	-ni,	[2f	mi-	2d	-ni,>	2f	-ni,>
=43	=43	=43	=43	=43	=43	=43	=43	=43	=43	=43	=43
1D]	.	4F	cre-	2A	<Ch'a	1f]	.	1dd	Ch'a	0r	.
.	.	4G	-scer	.	.	.	.	.	.	.	.
.	.	4A	vie-	8F	cre-	.	.	.	.	.	.
.	.	.	.	8G	-scer	.	.	.	.	.	.
.	.	4A	-ni,	4A	vie-	.	.	.	.	.	.
[1E-X	-se-	1r	.	[1G	-ni,>	[1g	-se-	2b-y	cre-	.	.
.	.	.	.	.	.	.	.	2cc	-scer	.	.
=44	=44	=44	=44	=44	=44	=44	=44	=44	=44	=44	=44
1E-]	.	2B-y	Ch'a	1G]	.	1g]	.	1ee-X	vie-	1b-y	Ch'a
.	.	8G	cre-	.	.	.	.	.	.	.	.
.	.	8A	-scer	.	.	.	.	.	.	.	.
.	.	4B-y	vie-	.	.	.	.	.	.	.	.
[1F	-ria	1F	-ni,>	1c	Ch'a	[1a	-ria	2cc	-ni,	2.a	cre-
.	.	.	.	.	.	.	.	2cc	<Ch'a	.	.
.	.	.	.	.	.	.	.	.	.	4b-y	-scer
=45	=45	=45	=45	=45	=45	=45	=45	=45	=45	=45	=45
0F]	.	1c	Ch'a	2f	cre-	0a]	.	2.a	cre-	1cc	vie-
.	.	.	.	2f	-scer	.	.	.	.	.	.
.	.	.	.	.	.	.	.	4b-y	-scer	.	.
.	.	2A	cre-	[1f	vie-	.	.	1cc	vie-	1c	-ni
.	.	2A	-scer	.	.	.	.	.	.	.	.
=46	=46	=46	=46	=46	=46	=46	=46	=46	=46	=46	=46
[0G	mi-	2d	vie-	2f]	.	[0g	mi-	2b-y	-ni>	1r	.
.	.	2BnX	-ni	2e	.	.	.	4g	la	.	.
.	.	.	.	.	.	.	.	4a	mi-	.	.
.	.	2r	.	2d	.	.	.	4bnX	-se-	4g	la
.	.	.	.	.	.	.	.	4cc	-ria	4a	mi-
.	.	4G	la	2d	-ni	.	.	2dd	mi-	4bnX	-se-
.	.	4A	mi-	.	.	.	.	.	.	4cc	-ria
=47	=47	=47	=47	=47	=47	=47	=47	=47	=47	=47	=47
*	*	*	*	*	*	*	*	*	*	*lig	*
0G]	.	4BnX	-se-	4G	la	0g]	.	2dd	-a,	1dd	mi-
.	.	4c	-ria	4A	mi-	.	.	.	.	.	.
.	.	2.d	mi-	4BnX	-se-	.	.	4g	la	.	.
.	.	.	.	4c	-ria	.	.	4a	mi-	.	.
.	.	.	.	2d	mi-	.	.	4bnX	-se-	1g	.
*	*	*	*	*	*	*	*	*	*	*Xlig	*
.	.	4c	.	.	.	.	.	4cc	-ria	.	.
.	.	2BnX	.	2G	.	.	.	2dd	mi-	.	.
=48	=48	=48	=48	=48	=48	=48	=48	=48	=48	=48	=48
0Cl	-a.	0cl	-a.	0Gl	-a.	0el	-a.	0ccl	-a.	0gl	-a.
==	==	==	==	==	==	==	==	==	==	==	==
*-	*-	*-	*-	*-	*-	*-	*-	*-	*-	*-	*-
!!!system-decoration: [*]
!!!RDF**kern: i = editorial accidental
!!!RDF**kern: l = terminal long
!!!ENC: Emiliano Ricciardi
!!!END: 2018
!!!EED: Coluzzi, Seth
!!!EEV: 2018/10/28
!!!YEC: Copyright 2018 Emiliano Ricciardi, All Rights Reserved
!!!ONB: Translated from MusicXML on 2018/10/28
!!@@BEGIN:	VERSEDATA
!!@CATALOGNUM:	Tam2031075
!!@LAST_MODIFIED: 2020/07/12
!!@ACT:         II
!!@SCENE:       3
!!@VERSE:       1075
!!@TITLE:       Dura conclusion, che tutte affosca
!!@MANUSRC:	A-Am, A-Au, A-Br, A-CM, A-F, A-Ub
!!@PRINTSRC:	A-1580D, A-1580M, A-1581B, A-1581B<sub>bis</sub>, A-1581M, A-1581M<sub>bis</sub>, A-1581O, A-1581V, A-1582B, A-1583M, A-1583V, A-1584A, A-1585C, A-1585V, A-1585V<sub>bis</sub>, A-1588B, A-1589M, A-1589V, A-1590Mb, A-1590Mv, A-1591M, A-1591W, A-1592B, A-1596B, A-1596M, A-1599Bf, A-1599Bp, A-1600R, A-1601Bf, A-1601Bp, A-1602B, A-1603Bf, A-1603Bv, A-1603Z, A-1605R, A-1606Z, A-1608D, A-1608DP, A-1609Bf, A-1609Bv, A-1609Z, A-1611D, A-1614GT, A-1617D, A-1618B, A-1619D, A-1619I, A-1620V, A-1622D, A-1623A, A-1624M, A-1624S, A-1624T, A-1625U, A-1628U, A-1632D, A-1634R
!!@@BEGIN:	VERSES
!!@ABOUTIT:	
!!@ABOUTEN:	
!!@EDITOR:	Solerti, Angelo
!!@EDITION_TITLE: Opere minori in versi di Torquato Tasso. Edizione critica sugli autografi e sulle antiche stampe.
!!@EDITION_LOC:	Bologna
!!@EDITION_PUB:	Zanichelli
!!@EDITION_DATE:  1895
!!@EDITION_VOL:	3
!!@EDITION_PAGE:
!!@TRANSLATOR:	Emiliano Ricciardi and Amyrose McCue Gill
!!@VERSE:	
!!	Dura conclusion, che tutte attosca
!!	Le dolcezze passate. Hor, con qual arte,
!!	Crudel, tu mi tormenti?
!!	Poco dunque ti pare
!!	Che infelice io sia,
!!	Ch'accrescer vieni la miseria mia?
!!@TVERSE:
!!	A hard conclusion, which entirely poisons
!!	The sweetnesses of earlier. Now, with what art,
!!	Cruel one, do you torment me?
!!	Little, therefore, it seems to you
!!	That I be unhappy,
!!	That you come to increase my misery?
!!@@END:		VERSES
!!@NEW_CRIT_ED:   Torquato Tasso, <i>Aminta. "Princeps."</i>, ed. Matteo Navone, vol. 9 of Commissione Nazionale per l'Edizione delle opere del Tasso. Studi e Testi (Alessandria: Edizioni dell'Orso, 2014).
!!@ATTRIBUTION_ABOUT:	
!!@DATING:	1573
!!@DEDICATEE:	
!!@COMMENTARY:
!!@@END:		VERSEDATA
!!@@BEGIN: SETTING
!!@CATALOGNUM:	Tam2031075a
!!@ACT:		II
!!@SCENE:		3
!!@VERSE:		1075
!!@TITLE:		Dura conclusion, che tutte affosca
!!@COMPOSER:	Balsamino, Simone
!!@PRINCEPSTITLE:	Novellette a sei voci
!!@PRINCEPSLOC:	Venice
!!@NORMLOC:	Venice
!!@NORMPUB:	Amadino
!!@NORMPUBSHORT:	Amadino
!!@PRINCEPSPUB:	Amadino
!!@PRINCEPSYEAR:	1594
!!@PRINCEPSRISM:	B 785
!!@OVOICES:	6
!!@EXTANTVOICES:	6
!!@OMENSURATION:	C
!!@OCLEFS:	C1,C1,C3,C4,C4,F4
!!@OTIME:		
!!@OKEYSIG:	b-
!!@FINAL:		(C)F
!!@TIMPEDITOR:	Coluzzi, Seth
!!@PARTS:		1 of 1
!!@REPRINTS:	
!!@@END: SETTING
